images/ico-bicro-emploi-badge.svg

<svg xmlns="http://www.w3.org/2000/svg" width="25" height="25" fill="none" viewBox="0 0 25 25"><g id="marche/badge"><g id="Group 4"><circle id="Ellipse 9" cx="17.001" cy="7.25" r="6.25" fill="#cce1f8"/><path id="Path 12" fill="#000638" d="M4.70462 14.764C4.86647 14.6004 5.13028 14.599 5.29387 14.7609C5.44654 14.9119 5.45795 15.1518 5.3272 15.3161L5.29701 15.3501L3.38173 17.2857L6.49256 17.397C6.70273 17.4045 6.87195 17.5667 6.89228 17.7718L6.89433 17.8134L6.89406 20.8531L8.45189 19.0275C8.59129 18.8642 8.82968 18.8351 9.00318 18.9534L9.03931 18.981C9.20269 19.1204 9.23174 19.3588 9.11345 19.5323L9.08584 19.5684L6.79464 22.2539C6.55223 22.538 6.09515 22.3828 6.06281 22.0241L6.061 21.9834L6.06073 18.2154L2.4025 18.0845C2.05367 18.0721 1.87953 17.6662 2.09363 17.4056L2.1212 17.3751L4.70462 14.764Z"/><path id="Path 16" fill="#000638" d="M18.6116 14.9137C18.742 14.7431 18.9785 14.7014 19.1581 14.8102L19.1957 14.8359L22.4659 17.3371C22.7658 17.5665 22.6286 18.0365 22.2675 18.0813L22.2265 18.0845L18.2038 18.2163L18.2038 21.9834C18.2038 22.355 17.759 22.5346 17.5005 22.286L17.4726 22.2566L15.1393 19.5712C14.9883 19.3975 15.0068 19.1343 15.1805 18.9834C15.3426 18.8425 15.5827 18.8492 15.7367 18.992L15.7683 19.0246L17.3704 20.8687L17.3704 17.8133C17.3704 17.6026 17.5272 17.4274 17.7319 17.4003L17.7735 17.3969L21.0321 17.2897L18.6894 15.4978C18.5188 15.3673 18.4771 15.1308 18.5859 14.9512L18.6116 14.9137Z"/><path id="Shape" fill="#000638" fill-rule="evenodd" d="M18.2037 10.9443C18.2037 7.69251 15.5676 5.0564 12.3158 5.0564C12.0857 5.0564 11.8991 5.24294 11.8991 5.47306C11.8991 5.70318 12.0857 5.88973 12.3158 5.88973C15.1074 5.88973 17.3704 8.15275 17.3704 10.9443C17.3704 13.2388 15.8283 15.2283 13.6467 15.822C13.4246 15.8824 13.2936 16.1114 13.354 16.3335C13.4145 16.5555 13.6434 16.6865 13.8655 16.6261C16.4076 15.9342 18.2037 13.6171 18.2037 10.9443ZM10.9661 6.07178C11.1879 6.0105 11.3181 5.781 11.2568 5.5592C11.1955 5.33739 10.966 5.20726 10.7442 5.26855C8.21285 5.96798 6.42773 8.27983 6.42773 10.9443C6.42773 13.6315 8.2431 15.9579 10.8041 16.6363C11.0266 16.6953 11.2547 16.5627 11.3136 16.3403C11.3725 16.1178 11.24 15.8897 11.0175 15.8308C8.81974 15.2486 7.26107 13.2511 7.26107 10.9443C7.26107 8.65698 8.79376 6.67203 10.9661 6.07178Z" clip-rule="evenodd"/><path id="Path 18" fill="#000638" fill-rule="evenodd" d="M8.80528 9.39379L10.7529 9.04872L12.1086 7.13849C12.2937 6.87759 12.6916 6.91396 12.8263 7.20409L13.6846 9.05206L15.6609 9.366C15.985 9.41743 16.1203 9.80166 15.9157 10.0444L15.8871 10.0752L14.5663 11.3677L14.8612 13.5847C14.9039 13.9055 14.5828 14.1449 14.2923 14.0261L14.2562 14.0094L12.3563 13.0227L10.4563 14.0094C10.1693 14.1584 9.83519 13.9383 9.84778 13.6249L9.85119 13.5853L10.1396 11.3901L8.61219 10.125C8.34971 9.90757 8.44697 9.49081 8.76445 9.40302L8.80528 9.39379ZM13.0223 9.60461L12.3726 8.20572L11.3341 9.67022C11.2708 9.75952 11.1748 9.82029 11.067 9.83939L9.83694 10.0571L10.8488 10.8953C10.9469 10.9766 11.0018 11.0976 10.9996 11.2232L10.9961 11.2705L10.7816 12.9014L12.1643 12.1837C12.2696 12.129 12.3924 12.1221 12.5021 12.1631L12.5483 12.1837L13.9296 12.9007L13.713 11.2711C13.6979 11.1572 13.7305 11.043 13.8017 10.9547L13.8346 10.9185L14.7123 10.0591L13.3349 9.84063C13.2131 9.82131 13.107 9.74925 13.0439 9.64512L13.0223 9.60461Z" clip-rule="evenodd"/><path id="Path 17 Copy" fill="#000638" fill-rule="evenodd" d="M13.1405 3.38696L13.4039 3.2268C13.8991 2.93736 14.2972 2.83775 14.7911 2.97403C15.3801 3.13656 15.5835 3.45387 15.7483 4.11187L15.772 4.20596L15.8002 4.31007C15.8704 4.55134 15.9465 4.67151 16.0967 4.76686C16.26 4.87047 16.4379 4.93667 16.7531 5.01152L16.9089 5.04684L17.3289 5.13548L17.5194 5.17924C18.1559 5.33264 18.48 5.49467 18.7876 5.86181C19.095 6.22879 19.1446 6.55614 19.0721 7.2372L19.0505 7.42315L19.0174 7.68224L19.004 7.79988L18.9926 7.92402C18.9624 8.32154 19.0096 8.57224 19.1642 8.77466C19.2808 8.92751 19.3977 9.04759 19.5314 9.15916L19.5516 9.17564L19.7421 9.32199L19.8771 9.42295L19.9419 9.4741C20.3336 9.7967 20.4937 10.1573 20.4937 10.8313C20.4937 11.5076 20.2694 11.8794 19.7465 12.3329L19.5961 12.4629L19.513 12.5372C19.2961 12.7368 19.1749 12.8988 19.085 13.1295C18.997 13.3555 18.9613 13.5527 18.9507 13.8664L18.9473 14.0336L18.9473 14.4034C18.9396 15.1179 18.8381 15.4482 18.4056 15.7764C18.1243 15.9899 17.8605 16.0892 17.5235 16.1406L17.4929 16.1451L17.262 16.1749C16.8921 16.225 16.7226 16.2897 16.4421 16.5152C16.2563 16.6645 16.1367 16.8639 16.0066 17.2095L15.9328 17.4128L15.8599 17.6096C15.5848 18.3161 15.2864 18.6397 14.6094 18.7286C13.9897 18.8101 13.6467 18.6391 13.2324 18.2015L13.1235 18.0873C12.8989 17.8599 12.7553 17.7909 12.4479 17.7909C12.1205 17.7909 11.9524 17.8689 11.6399 18.1177L11.5 18.2279C11.0207 18.5929 10.6308 18.7112 9.9798 18.5759C9.23073 18.4203 8.85748 18.0005 8.58823 17.2746L8.45407 16.8986L8.41416 16.7969C8.35058 16.6433 8.30028 16.566 8.24115 16.5205C8.17054 16.4661 8.07916 16.4262 7.93185 16.3905L7.82496 16.3673L7.69919 16.3446L7.5522 16.3219L7.17605 16.2707C6.51188 16.1756 6.15511 16.0552 5.84701 15.732C5.56062 15.4316 5.46289 15.0842 5.46437 14.5079L5.46742 14.3369L5.4754 14.1524C5.48055 14.0567 5.48737 13.9556 5.49561 13.8486L5.51827 13.5535L5.53317 13.3214L5.53901 13.1917L5.54149 13.0788C5.54175 13.0437 5.54144 13.011 5.54054 12.9803L5.53611 12.8933L5.52811 12.8154L5.51649 12.7438L5.50929 12.7096C5.48433 12.5992 5.42828 12.5185 5.2822 12.4028L5.19323 12.3358C5.16036 12.3121 5.12416 12.2868 5.08427 12.2596L4.94953 12.1668C4.40319 11.7799 4.15918 11.4342 4.15918 10.7897C4.15918 10.1378 4.38926 9.79512 4.92685 9.37543L5.10362 9.23611C5.33729 9.04463 5.44758 8.90488 5.5209 8.68762C5.59505 8.46794 5.61753 8.20302 5.60496 7.81451L5.60236 7.74237L5.58165 7.3027L5.57572 7.11563L5.57377 6.94375L5.57632 6.78585C5.59374 6.25625 5.7034 5.96113 6.00536 5.66522C6.36282 5.31493 6.73965 5.24089 7.3775 5.26725L7.54934 5.27464L7.68976 5.27832L7.80869 5.27775C8.02683 5.27208 8.13192 5.23835 8.21917 5.16107C8.32183 5.07014 8.40067 4.95088 8.51158 4.71357L8.56996 4.58466L8.72305 4.23125L8.79839 4.0682L8.87241 3.92015C9.1183 3.45075 9.36202 3.21783 9.80077 3.08608C10.2144 2.96187 10.5792 3.03257 11.0108 3.25087C11.0286 3.25988 11.0466 3.26912 11.0649 3.27876L11.183 3.34254L11.4278 3.47905C11.8005 3.68196 12.0121 3.74944 12.2758 3.731C12.5474 3.71201 12.7599 3.62081 13.1405 3.38696ZM19.4462 10.1461L19.3776 10.0899L19.0789 9.86402L18.9973 9.79887C18.8177 9.64892 18.6576 9.4845 18.5018 9.28036C18.1806 8.85973 18.1083 8.39402 18.1709 7.75524L18.1844 7.63016L18.2223 7.33009L18.2403 7.17593L18.2535 7.04019C18.257 6.99783 18.2597 6.95826 18.2616 6.92122L18.2646 6.81736C18.2653 6.60752 18.2289 6.49252 18.1488 6.39697C18.0098 6.23104 17.8358 6.13106 17.4988 6.03551L17.3646 5.99977C17.3408 5.99381 17.3164 5.98783 17.2912 5.98183L17.1312 5.94535L16.7074 5.85588L16.5199 5.81285C16.1376 5.72046 15.9014 5.62984 15.6503 5.47052C15.2755 5.23272 15.1016 4.92848 14.9774 4.46135L14.9238 4.25127L14.8933 4.14143C14.8189 3.89243 14.7524 3.82784 14.5694 3.77734C14.3329 3.71209 14.1443 3.75929 13.8244 3.94627L13.4816 4.15462C13.0476 4.41352 12.7448 4.53357 12.3339 4.5623C11.8447 4.59651 11.4947 4.47261 10.9378 4.16037L10.6979 4.02693L10.572 3.96383C10.3488 3.85892 10.1993 3.83649 10.0404 3.8842C9.8433 3.9434 9.71662 4.08136 9.54356 4.44231L9.48036 4.5792L9.32319 4.94213L9.25047 5.10168C9.09808 5.42452 8.97383 5.60586 8.77169 5.7849C8.48797 6.03619 8.22882 6.11064 7.77007 6.11233L7.60945 6.11033L7.26613 6.09722C6.89492 6.08724 6.72436 6.12739 6.58863 6.26041C6.48553 6.36143 6.43237 6.49838 6.41489 6.75728L6.40977 6.86755C6.40922 6.88708 6.40882 6.90721 6.40857 6.92795L6.40877 7.06003L6.4152 7.28865L6.43653 7.74872L6.44077 7.90491C6.44782 8.32584 6.4141 8.64709 6.31048 8.95411C6.16798 9.37632 5.94778 9.63345 5.55188 9.94477L5.37962 10.0799C5.07365 10.3266 4.99251 10.4665 4.99251 10.7897C4.99251 11.1214 5.09917 11.2608 5.49249 11.5294L5.63289 11.6259C6.04115 11.9133 6.2326 12.1301 6.32209 12.5257C6.36009 12.6937 6.37666 12.849 6.37596 13.0582L6.3735 13.1907L6.36246 13.4208L6.3505 13.5996L6.33509 13.8026L6.31364 14.0975L6.30499 14.2652C6.3039 14.2918 6.30299 14.3177 6.30227 14.3429L6.30009 14.4864C6.30016 14.8486 6.34751 15.0493 6.45015 15.157C6.56331 15.2757 6.73928 15.3483 7.06761 15.409L7.21791 15.4343C7.27129 15.4426 7.32804 15.4507 7.38843 15.4588L7.58906 15.4855L7.77009 15.5116L7.9312 15.5383C8.31106 15.6063 8.52686 15.6886 8.74971 15.8603C9.00522 16.0572 9.12292 16.2834 9.28471 16.7453L9.35643 16.949L9.39652 17.0553C9.56776 17.4887 9.75173 17.6774 10.1493 17.76C10.5541 17.8441 10.715 17.7885 11.0506 17.5217L11.1985 17.4051C11.6067 17.093 11.9291 16.9576 12.4479 16.9576C13.0439 16.9576 13.3806 17.1463 13.7777 17.5651L13.8827 17.6754C14.1 17.8973 14.21 17.9406 14.5008 17.9024C14.7703 17.867 14.8926 17.7657 15.039 17.4187L15.0863 17.3008C15.1024 17.2586 15.119 17.2135 15.1363 17.1652L15.2267 16.916C15.4046 16.4432 15.5938 16.1278 15.92 15.8656C16.3639 15.5089 16.6748 15.4064 17.2437 15.3371L17.3732 15.3204L17.4648 15.3054C17.637 15.2727 17.7595 15.2206 17.9018 15.1126C18.0332 15.0129 18.0881 14.9017 18.1066 14.623L18.1119 14.5103C18.1122 14.4991 18.1125 14.4877 18.1128 14.476C18.113 14.4666 18.1132 14.4572 18.1134 14.4475L18.1144 14.3079L18.1136 14.1134C18.1138 13.5449 18.1519 13.2293 18.3085 12.8271C18.464 12.4279 18.679 12.1597 19.0306 11.8504L19.261 11.65C19.57 11.3723 19.6603 11.2008 19.6603 10.8313C19.6603 10.4325 19.6152 10.2948 19.4462 10.1461Z" clip-rule="evenodd"/></g></g></svg>

<svg xmlns="http://www.w3.org/2000/svg" width="25" height="25" fill="none" viewBox="0 0 25 25"><circle cx="17.001" cy="7.25" r="6.25" fill="#CCE1F8"/><path fill="#000638" d="M4.705 14.764a.417.417 0 0 1 .622.552l-.03.034-1.915 1.936 3.11.111c.21.008.38.17.4.375l.002.041v3.04l1.558-1.826a.417.417 0 0 1 .551-.074l.036.028c.164.14.193.378.074.551l-.027.036-2.291 2.686a.417.417 0 0 1-.732-.23l-.002-.04v-3.769l-3.658-.13a.417.417 0 0 1-.31-.68l.028-.03zm13.907.15a.417.417 0 0 1 .546-.104l.038.026 3.27 2.501c.3.23.163.7-.199.744l-.04.003-4.023.132v3.767a.417.417 0 0 1-.704.303l-.027-.03-2.334-2.685a.417.417 0 0 1 .598-.579l.031.033 1.602 1.844v-3.056c0-.21.157-.386.362-.413l.041-.003 3.26-.107-2.344-1.792a.417.417 0 0 1-.103-.547z"/><path fill="#000638" fill-rule="evenodd" d="M18.204 10.944a5.89 5.89 0 0 0-5.888-5.888.417.417 0 0 0 0 .834 5.055 5.055 0 0 1 1.33 9.932.417.417 0 1 0 .22.804 5.89 5.89 0 0 0 4.338-5.682m-7.238-4.872a.417.417 0 1 0-.222-.803 5.89 5.89 0 0 0 .06 11.367.417.417 0 1 0 .213-.805 5.057 5.057 0 0 1-.05-9.76" clip-rule="evenodd"/><path fill="#000638" fill-rule="evenodd" d="m8.805 9.394 1.948-.345 1.356-1.91a.417.417 0 0 1 .717.065l.859 1.848 1.976.314c.324.051.46.436.255.678l-.029.031-1.32 1.293.294 2.217a.417.417 0 0 1-.569.441l-.036-.017-1.9-.986-1.9.986a.417.417 0 0 1-.608-.384l.003-.04.289-2.195-1.528-1.265a.417.417 0 0 1 .152-.722zm4.217.21-.65-1.398-1.038 1.464a.42.42 0 0 1-.267.17l-1.23.217 1.012.838a.42.42 0 0 1 .15.328l-.003.047-.214 1.631 1.382-.717a.42.42 0 0 1 .338-.02l.046.02 1.382.717-.217-1.63a.42.42 0 0 1 .089-.316l.033-.037.877-.859-1.377-.218a.42.42 0 0 1-.291-.196z" clip-rule="evenodd"/><path fill="#000638" fill-rule="evenodd" d="m13.14 3.387.264-.16c.495-.29.893-.39 1.387-.253.59.163.793.48.957 1.138l.024.094.028.104c.07.241.146.362.297.457.163.103.34.17.656.245l.156.035.42.088.19.044c.637.154.961.316 1.269.683s.357.694.284 1.375l-.021.186-.034.26-.013.117-.011.124c-.03.398.017.648.171.85.117.154.234.274.367.385l.02.017.191.146.135.101.065.051c.392.323.552.683.552 1.357 0 .677-.225 1.048-.747 1.502l-.15.13-.084.074c-.217.2-.338.362-.428.592a2 2 0 0 0-.134.737l-.004.168v.37c-.007.714-.109 1.044-.541 1.372a1.8 1.8 0 0 1-.883.365l-.03.004-.231.03c-.37.05-.54.115-.82.34-.186.15-.305.349-.435.694l-.074.204-.073.197c-.275.706-.574 1.03-1.25 1.119-.62.081-.963-.09-1.378-.527l-.108-.115c-.225-.227-.369-.296-.676-.296-.328 0-.496.078-.808.327l-.14.11c-.48.365-.87.483-1.52.348-.75-.156-1.123-.576-1.392-1.301l-.134-.376-.04-.102c-.063-.154-.114-.231-.173-.277a.8.8 0 0 0-.31-.13l-.106-.023-.126-.022-.147-.023-.376-.051c-.664-.095-1.02-.216-1.329-.539-.286-.3-.384-.648-.383-1.224l.003-.171.008-.185.02-.303.023-.296.015-.232.006-.13.002-.112v-.099l-.005-.087-.008-.078-.012-.071-.007-.034c-.025-.11-.08-.192-.227-.307l-.089-.067-.109-.076-.134-.093c-.547-.387-.79-.733-.79-1.377 0-.652.23-.995.767-1.415l.177-.139c.233-.191.344-.331.417-.548.074-.22.097-.485.084-.873l-.003-.073-.02-.44-.006-.186-.002-.172.002-.158c.018-.53.127-.825.43-1.12.357-.351.734-.425 1.372-.399l.171.008.14.003h.12c.218-.006.323-.04.41-.117.103-.09.182-.21.293-.447l.058-.13.153-.353.075-.163.074-.148c.246-.47.49-.702.929-.834.413-.124.778-.053 1.21.165l.054.028.118.064.245.136c.372.203.584.27.848.252.271-.019.484-.11.864-.344m6.306 6.76-.068-.057-.3-.226-.08-.065c-.18-.15-.34-.314-.496-.519-.321-.42-.394-.886-.331-1.525l.013-.125.038-.3.018-.154.014-.136.008-.119.003-.104c0-.21-.036-.324-.116-.42-.14-.166-.313-.266-.65-.361L17.365 6l-.074-.018-.16-.037-.424-.09-.187-.042c-.382-.093-.619-.183-.87-.342-.375-.238-.548-.543-.673-1.01l-.053-.21-.03-.11c-.075-.249-.142-.313-.325-.364-.236-.065-.425-.018-.745.17l-.342.208c-.434.259-.737.379-1.148.407-.49.035-.84-.09-1.396-.402l-.24-.133-.126-.063c-.223-.105-.373-.128-.532-.08-.197.06-.323.197-.496.558l-.064.137-.157.363-.073.16c-.152.323-.276.504-.478.683-.284.251-.543.326-1.002.327l-.16-.002-.344-.013c-.371-.01-.542.03-.677.163-.103.101-.157.238-.174.497l-.005.11-.001.061v.132l.006.229.022.46.004.156c.007.42-.027.742-.13 1.05-.143.421-.363.678-.76.99l-.171.135c-.306.247-.387.386-.387.71 0 .331.106.47.5.74l.14.096c.408.287.6.504.69.9.037.168.054.323.053.532l-.003.133-.01.23-.013.179-.015.203-.021.294-.009.168-.003.078-.002.143c0 .363.048.563.15.671.113.119.29.191.618.252l.15.025q.08.013.17.025l.201.027.181.026.161.026c.38.068.596.15.819.322.255.197.373.423.535.885l.071.204.04.106c.172.434.356.622.753.705.405.084.566.028.902-.238l.147-.117c.409-.312.731-.447 1.25-.447.596 0 .933.188 1.33.607l.105.11c.217.222.327.266.618.227.27-.035.392-.136.538-.483l.047-.118.05-.136.09-.249c.179-.473.368-.788.694-1.05.444-.357.755-.46 1.324-.529l.13-.017.09-.015a.95.95 0 0 0 .438-.192c.131-.1.186-.211.205-.49l.005-.113v-.034l.001-.029.001-.14v-.194c0-.568.038-.884.194-1.286.156-.4.371-.667.723-.977l.23-.2c.309-.278.4-.45.4-.819 0-.399-.046-.536-.215-.685" clip-rule="evenodd"/></svg>
